openmetadata-ui/src/main/resources/ui/src/assets/svg/ic-quality.svg

<svg width="16" height="16" viewBox="0 0 16 16" fill="none" xmlns="http://www.w3.org/2000/svg">
<g clip-path="url(#clip0)">
<path d="M9.80973 6.51376L7.40573 8.78437L6.25199 7.59742C6.12408 7.46574 5.91347 7.46275 5.78192 7.59065C5.65024 7.71868 5.64724 7.92916 5.77514 8.06085L7.15891 9.48133C7.28746 9.61067 7.49521 9.6151 7.6291 9.49123L10.2733 6.99724C10.3375 6.93667 10.375 6.85305 10.3775 6.76488C10.38 6.6767 10.3473 6.59113 10.2866 6.52704C10.1579 6.39328 9.94571 6.38742 9.80973 6.51376Z" fill="#76746F"/>
<path d="M8.02594 3.01929C5.27847 3.01929 3.04443 5.25332 3.04443 8.00079C3.04443 10.7484 5.27847 12.9824 8.02594 12.9824C10.7735 12.9824 13.0076 10.7484 13.0076 8.00079C13.0076 5.25332 10.7735 3.01929 8.02594 3.01929ZM8.02594 12.3156C5.64525 12.3156 3.71131 10.3782 3.71131 8.00079C3.71131 5.62336 5.64525 3.68616 8.02594 3.68616C10.409 3.68616 12.3407 5.61789 12.3407 8.00079C12.3407 10.3837 10.409 12.3156 8.02594 12.3156Z" fill="#76746F"/>
<path d="M14.8813 6.16693L14.9913 4.18962C14.999 4.0569 14.9269 3.93225 14.8079 3.87286L13.0474 2.98261L12.1571 1.22203C12.0966 1.10415 11.9727 1.03239 11.8404 1.03864L9.85966 1.14544L8.20915 0.0549977C8.09792 -0.0183326 7.95373 -0.0183326 7.84237 0.0549977L6.19186 1.14544L4.21468 1.03538C4.08183 1.02757 3.95731 1.09973 3.89791 1.21877L3.00753 2.97935L1.24709 3.8696C1.12909 3.93004 1.05745 4.0539 1.0637 4.18637L1.17363 6.16368L0.0833179 7.81419C0.00998779 7.92543 0.00998779 8.06961 0.0833179 8.18098L1.17037 9.83475L1.06031 11.8121C1.05263 11.9448 1.12466 12.0694 1.2437 12.1288L3.00428 13.0191L3.89453 14.7797C3.95496 14.8977 4.07883 14.9693 4.21129 14.963L6.1886 14.853L7.83911 15.9433C7.94969 16.019 8.09531 16.019 8.20589 15.9433L9.85641 14.853L11.8337 14.963C11.9664 14.9707 12.091 14.8986 12.1505 14.7797L13.0407 13.0191L14.8013 12.1288C14.9192 12.0683 14.9909 11.9445 14.9847 11.8121L14.8746 9.83475L15.9649 8.18423C16.0383 8.073 16.0383 7.92868 15.9649 7.81745L14.8813 6.16693ZM14.261 9.56136C14.2204 9.62101 14.2015 9.69278 14.2078 9.7648L14.311 11.6353L12.6472 12.4755C12.5838 12.5073 12.5324 12.5589 12.5006 12.6223L11.6602 14.2861L9.78972 14.1829C9.71808 14.1802 9.64736 14.1987 9.58627 14.2361L8.02576 15.2665L6.46538 14.2361C6.4112 14.1995 6.34737 14.1797 6.28199 14.1795H6.26532L4.39468 14.2829L3.55445 12.619C3.52267 12.5555 3.47122 12.5041 3.40766 12.4723L1.74047 11.6353L1.84389 9.7648C1.8465 9.69317 1.82787 9.62244 1.79049 9.56136L0.760221 8.00084L1.79049 6.44033C1.83126 6.3808 1.85014 6.30891 1.84389 6.23701L1.74047 4.36637L3.4044 3.52613C3.46783 3.49435 3.51928 3.44291 3.55106 3.37947L4.3913 1.71554L6.26193 1.81896C6.33344 1.82144 6.40416 1.80294 6.46538 1.76556L8.02576 0.735289L9.58627 1.76556C9.64592 1.80633 9.71782 1.82521 9.78972 1.81896L11.6602 1.71554L12.5006 3.37947C12.5324 3.44291 12.5838 3.49435 12.6472 3.52613L14.311 4.36637L14.2078 6.23701C14.2052 6.30852 14.2238 6.37924 14.261 6.44033L15.2914 8.00084L14.261 9.56136Z" fill="#76746F"/>
</g>
<defs>
<clipPath id="clip0">
<rect width="16" height="16" fill="white"/>
</clipPath>
</defs>
</svg>

<svg xmlns="http://www.w3.org/2000/svg" width="16" height="16" fill="none"><g fill="#76746F" clip-path="url(#a)"><path d="m9.81 6.514-2.404 2.27-1.154-1.187a.332.332 0 1 0-.477.464L7.16 9.48c.128.13.336.134.47.01l2.644-2.494a.332.332 0 0 0 .014-.47.34.34 0 0 0-.477-.013Z"/><path d="M8.026 3.02A4.986 4.986 0 0 0 3.044 8a4.986 4.986 0 0 0 4.982 4.982 4.986 4.986 0 0 0 4.982-4.981 4.986 4.986 0 0 0-4.982-4.982Zm0 9.296A4.32 4.32 0 0 1 3.71 8a4.315 4.315 0 1 1 4.315 4.315Z"/><path d="m14.881 6.167.11-1.977a.333.333 0 0 0-.183-.317l-1.76-.89-.89-1.761a.338.338 0 0 0-.318-.183l-1.98.106L8.21.055a.333.333 0 0 0-.368 0l-1.65 1.09-1.977-.11a.332.332 0 0 0-.317.184l-.89 1.76-1.76.89a.338.338 0 0 0-.184.317l.11 1.978-1.09 1.65a.333.333 0 0 0 0 .367L1.17 9.835l-.11 1.977a.332.332 0 0 0 .184.317l1.76.89.89 1.76c.061.119.185.19.317.184l1.978-.11 1.65 1.09c.11.076.256.076.367 0l1.65-1.09 1.978.11a.333.333 0 0 0 .316-.183l.89-1.76 1.761-.891a.338.338 0 0 0 .184-.317l-.11-1.977 1.09-1.65a.333.333 0 0 0 0-.368l-1.084-1.65Zm-.62 3.394a.313.313 0 0 0-.053.204l.103 1.87-1.664.84a.33.33 0 0 0-.146.147l-.84 1.664-1.871-.103a.363.363 0 0 0-.204.053l-1.56 1.03-1.56-1.03a.33.33 0 0 0-.184-.056h-.017l-1.87.103-.84-1.664a.328.328 0 0 0-.147-.147l-1.668-.837.104-1.87a.364.364 0 0 0-.054-.204L.76 8.001l1.03-1.56c.041-.06.06-.132.054-.204l-.104-1.87 1.664-.84a.329.329 0 0 0 .147-.148l.84-1.663 1.87.103a.366.366 0 0 0 .204-.053l1.56-1.03 1.561 1.03c.06.04.132.06.204.053l1.87-.103.84 1.663a.329.329 0 0 0 .147.147l1.664.84-.103 1.871a.366.366 0 0 0 .053.203L15.291 8l-1.03 1.561Z"/></g><defs><clipPath id="a"><path fill="#fff" d="M0 0h16v16H0z"/></clipPath></defs></svg>
